svgs/sharp-regular/rectangle-vertical-history.svg

<svg xmlns="http://www.w3.org/2000/svg" viewBox="0 0 576 512"><!--! Font Awesome Pro 6.6.0 by @fontawesome - https://fontawesome.com License - https://fontawesome.com/license (Commercial License) Copyright 2024 Fonticons, Inc. --><path d="M240 48l0 416 288 0 0-416L240 48zM192 0l48 0L528 0l48 0 0 48 0 416 0 48-48 0-288 0-48 0 0-48 0-416 0-48zM96 48l48 0 0 416-48 0L96 48zM0 96l48 0 0 320L0 416 0 96z"/></svg>

<svg xmlns="http://www.w3.org/2000/svg" viewBox="0 0 576 512"><!--! Font Awesome Pro 6.5.2 by @fontawesome - https://fontawesome.com License - https://fontawesome.com/license (Commercial License) Copyright 2024 Fonticons, Inc. --><path d="M240 48V464H528V48H240zM192 0h48H528h48V48 464v48H528 240 192V464 48 0zM96 48h48V464H96V48zM0 96H48V416H0V96z"/></svg>
